source/img/logos/logo_lightblue.svg

<svg width="48" height="32" fill="none" xmlns="http://www.w3.org/2000/svg"><circle cx="16" cy="16" r="16" fill="#98C3E8"/><circle cx="32" cy="16" r="15" fill="#fff" stroke="#316099" stroke-width="2"/><path d="M38.3 23L33.38 9h-3.42l-4.9 14h2.98l.84-2.52h5.58L35.3 23h3zm-6.62-10.82l1.92 5.72h-3.84l1.92-5.72z" fill="#316099"/></svg>

<svg width="48" height="32" viewBox="0 0 48 32" fill="none" xmlns="http://www.w3.org/2000/svg">
<circle cx="16" cy="16" r="16" fill="#98C3E8"/>
<circle cx="32" cy="16" r="15" fill="white" stroke="#316099" stroke-width="2"/>
<path d="M38.3 23L33.38 9H29.96L25.06 23H28.04L28.88 20.48H34.46L35.3 23H38.3ZM31.68 12.18L33.6 17.9H29.76L31.68 12.18Z" fill="#316099"/>
</svg>
